home-floor-1.svg

<svg fill="currentColor" viewBox="0 0 24 24"><path d="M12 3 2 12h3v8h14v-8h3zm-2 5h4v10h-2v-8h-2z"/></svg>

<svg  viewBox="0 0 24 24" fill="currentColor"><path  d="M12,3L2,12H5V20H19V12H22L12,3M10,8H14V18H12V10H10V8Z"/></svg>
